X: 17912
T: House In The Glen, The
R: jig
M: 6/8
K: Dmajor
|:B|AFD FAd|AFD EDB,|A,DF Adf|gfg eag|
fdB AFD|EDB, DFA|dcd eag|fdc d2:|
|:g|afa geg|fdf ecA|dcd fed|cAc efg|
afa geg|fdf ecA|dcd AFD|EDC D2:|

